X: 33191
T: Prohibition, The
R: reel
M: 4/4
K: Gmajor
||BAGB eBdB|AD (3 FED FGAc|BAGB edcB|cdef gedc|
BAGB eBdB|AD (3 FED FGAc|BAGB edcB|cdef gedc||
B2 gf edcB|A2 ag fedc|B2 gf edcB|(3cBA (3BAG FGAc|
B2 gf edcB|A2 ag fedc|BcdB cdeg|fadf gedc||

